!!!OTL: Graf und Nonne (Die Nonne) Det var tva sata vaenner,
!!!ARE: Nordeuropa, Sverige
!!!YOR: 8, S. 285
!!    1818 gedruckt in Stockholm
!!!SCT: Q21550
!!!YEM: Copyright 1995, estate of Helmut Schaffrath.
**kern
*ICvox
*Ivox
*M2/4
*k[b-e-]
*g:
{4g
=1
8g
8dd
16dd
16cc
16b-
16a
=2
4g
8.f#}
{16g
=3
8b-
8b-
8cc
8cc
=4
4dd}
{4g
=5
8g
8dd
16dd
16cc
16b-
16a
=6
4g
8.f#}
{16g
=7
8b-
8b-
8cc
8cc
=8
4dd
8r}
{8dd
=9
8.dd
16ffn
8.ffn
16dd
=10
8.dd
16b-
8.b-}
{16dd
=11
8dd
8cc
8.cc
16b-
=12
4a
8r}
{8a
=13
8.b-
16b-
8cc
8cc
=14
8.dd
16dd
8.g}
{16a
=15
8b-
8b-
8a
8a
=16
4g}
==
!!!AGN: Ballade, Standesunterschied, vergebliche Werbung, Liebe, Klage
!! Schwedische Fassung der Ballade.
!!    Schlusspause und Pause in der zweiten Zeile rhythmisch korrigiert.
!!!ONB: ESAC (Essen Associative Code) Database: BALLADE
!!!AMT: simple duple
!!!AIN: vox
!!!EED: Helmut Schaffrath
!!!EEV: 1.0
*-
